X: 172
T: The Countess of Lauderdales Reel
C: Abraham Mackintosh
R: reel
M: C|
L: 1/8
Z: 2011 John Chambers <jc:trillian.mit.edu>
B: Abraham Mackintosh "A Collection of Strathspeys, Reels, Jigs &c.", Newcastle, after 1797, p.17
F: http://imslp.info/files/imglnks/usimg/a/a8/IMSLP80796-PMLP164326-Abraham_Mackintosh_coll.pdf
K: A
V: 1
e |\
a2ec fdec | bB-Bc edcB | [AA]A(GA) (FA)(EA) | BcdB c2AE |
A2EC FDEC | B,B2c dcdB | AcBd cedf | edcB c2A |]
E |\
A2AE FEAE | A2AE ABcB | [AA]A(GA) (FA)(EA) | BcdB c2AE |
A2AE FEAE | A2Af edcB | AaBa cada | f/g/a ed c2A |]
V: 2 clef=bass middle=d
z |\
a2a2 d'2c'a | d'3c' b2e'2 | c'2c'2 d'2c'2 | b2e2 a2A2 |
c2A2 d2cA | d3c B2e2 | a2g2 a2d2 | e2E2 a2A |]
z |\
A2c2 d2c2 | A2A2 A2A2 | c2c2 d2c2 | B2e2 a2c'2 |
a2c'2 d'2c'2 | a=gfd e2e2 | a2^g2 =g2f2 | d2e2 a2A |]

%%sep 2 1 500

